X: 1
T: Father Kelly's
R: reel
M: 4/4
L: 1/8
K: Dmaj
|:de | f2 df edBd | Addc defa | g2 ef gfed | Beed efge |
f2 df edBd | Addc defg | a2 fa a2 fa | gece d2 :|
|:fg | a2 fa dafa | a2 fa dafa | fBBB edcB | ABcd edcB |
a2 fa dafa | a2fa dafa | g2 eg f2 df | edce d2 :||


Tune 791	Setting 13934

